X: 1757
T: Oh Ma Ma
B: australian traditional tunes wiki
M:6/8
L:1/8
R: Single Jig
Q: 3/8=100
K:C
V:1 
"C"e3"G7"d3|"C"c3-c2G|c2BA2G|"G7"B6|d3"C"c3|"G7"B3-B2G|B2AG2F|"C"E2Gc2d|
e3"G7"d3|"C"c3-c2A|"Dm"f2e"A7"d2^c|"Dm"d3-d2d|f2AA2A|"C"e2GG2G|"G7"d2d c2B|"C"c3-c2z||
% abcbook-tune_id 6342d53a428efcc3b7fd6519


% abcbook-boost 0
% abcbook-tablature 
% abcbook-transpose 
% abcbook-lastupdated 1665324382023
% abcbook-soundfonts 
% abcbook-repeats 1
% NFF Book 2017

